!!!OTL-incipit: Der Buechabecher Boder, der hot a sammats Kaeppl auf
!!!ARE: Europa, Mitteleuropa, Deutschland, Ober - Franken, Buechenbach
!!!SCT: V0005A
!!!TXL: @@BAR
!!!YEM: Copyright 1995, estate of Helmut Schaffrath.
**kern	**text
*ICvox	*
*M2/4	*
*k[]	*
*C:	*
{8g	Der
=1	=1
8g	Bü-
8cc	-cha-
8b	-be-
8a	-cher
=2	=2
4g	Bo-
8e}	-der,
{8e	der
=3	=3
8g	hot
8f	a
8f	sam-
8f	-mats
=4	=4
8a	Käp-
8g	-pl
8g}	auf,
{8g	dös
=5	=5
8g	kauf
16cc	ma-
16cc	-ra
8b	um
8a	an
=6	=6
4g	To-
8e}	-ler
{8e	und
=7	=7
8g	setz
8f	dann
8e	sel-
8d	-ber
=8	=8
4c	auf.
8r}	.
{8e	Da-
=9	=9
8.d	-rip,
16d	da-
8.e	-rip,
16e	da-
=10	=10
8.f	-rip,
16f	da-
8.e}	-rip,
{16e	da-
=11	=11
8.d	-rip,
16d	da-
8.e	-rip,
16e	da-
=12	=12
4f	-ram,
8r}	.
{8g	da-
=13	=13
8.g	-rip,
16g	da-
8.g	-rap,
16g	da-
=14	=14
4g	-ram,
8r}	.
{8g	da-
=15	=15
8g	-rap
8f	ba-
8e	-ba-
8d	-ba-
=16	=16
4c	-bam.
8r}	.
{8g	Der
=17	=17
8g	Bü-
8cc	-cha-
8b	-be-
8a	-cher
=18	=18
4g	Bo-
8e}	-der,
{8e	der
=19	=19
8g	hot
8f	a
8f	sam-
8f	-mats
=20	=20
8a	Käp-
8g	-pl
8g}	auf,
{8g	dös
=21	=21
8g	kauf
16cc	ma-
16cc	-ra
8b	um
8a	an
=22	=22
4g	To-
8e}	-ler
{8e	und
=23	=23
8g	setz
8f	dann
8e	sel-
8d	-ber
=24	=24
4c	auf.
8r}	.
==	==
!!!AGN: Geselligkeits - Lied, Scherz
!!!ONB: ESAC (Essen Associative Code) Database: VARIANT
!!!AMT: simple duple
!!!AIN: vox
!!!EED: Helmut Schaffrath
!!!EEV: 1.0
!!!source: Heigl, U.; Liertz, M. J. et al.: Registeer un Beispielsammlung zu den Forschungsexkursionen des Instituts für Volkskunde nach Oberfranken. Maschinenschriftliches Manuskript, München 1982.
!!!page: 99
!!!ENC: Anna Maria Matuszewska
!!!EEV: 2025/04/01
*-	*-
